svg/furkot/freepik/rocket.svg

<svg viewBox="0 0 512 512" xmlns="http://www.w3.org/2000/svg"><path d="m219.818 334.618c.285 21.354-2.358 43.133-7.855 64.73-5.662 22.243-13.777 43.475-24.116 63.108-3.637 6.901-10.525 11.022-18.432 11.022-5.595 0-10.87-2.193-14.851-6.174l-108.886-108.887c-4.785-4.785-6.948-11.371-5.932-18.069.997-6.586 4.928-12.131 10.78-15.216 19.628-10.337 40.862-18.451 63.108-24.113 20.53-5.225 41.272-7.875 61.647-7.875 1.042 0 2.071.007 3.082.02 22.558.299 41.155 18.896 41.455 41.454zm211.109-73.5c-21.996 21.996-45.706 43.527-68.868 63.44 4.491 21.619 10.085 61.765-.255 96.918-14.368 48.857-46.292 83.978-47.643 85.449-3.454 3.759-8.292 5.944-13.397 6.054-.133.003-.262.003-.395.003-4.962 0-9.73-1.971-13.244-5.488l-53.828-53.83c6.012-14.503 11.029-29.578 14.973-45.076 6.306-24.778 9.338-49.833 9.009-74.467-.577-43.395-35.021-77.841-78.419-78.418-1.179-.015-2.372-.023-3.581-.023-23.49 0-47.339 3.04-70.888 9.034-15.5 3.944-30.573 8.959-45.076 14.97l-53.828-53.827c-3.609-3.609-5.589-8.537-5.482-13.639.107-5.105 2.295-9.943 6.054-13.397 1.471-1.351 36.592-33.273 85.449-47.644 13.26-3.898 28.37-5.876 44.916-5.876 20.46 0 39.377 3.004 51.997 5.627 19.913-23.163 41.447-46.875 63.443-68.871 74.043-74.042 185.739-82.035 230.325-82.035 7.852 0 12.435.268 12.932.3 9.439.582 16.961 8.105 17.543 17.543.382 6.206 8.355 153.16-81.737 243.253zm-13.37-57.702c14.424-14.423 22.366-33.599 22.366-53.994 0-20.398-7.942-39.574-22.366-53.998s-33.599-22.365-53.995-22.365c-20.397 0-39.573 7.942-53.997 22.365s-22.365 33.6-22.365 53.998c0 20.397 7.942 39.571 22.365 53.994s33.6 22.366 53.997 22.366c20.396 0 39.572-7.942 53.995-22.366zm-53.995-92.894c-10.389 0-20.157 4.046-27.505 11.394-7.346 7.348-11.394 17.116-11.394 27.506 0 10.389 4.046 20.157 11.394 27.505 7.348 7.346 17.116 11.394 27.505 11.394 10.39 0 20.158-4.046 27.506-11.394 7.345-7.348 11.394-17.116 11.394-27.505 0-10.39-4.046-20.158-11.394-27.506-7.35-7.348-17.118-11.394-27.506-11.394z"/></svg>

<svg xmlns="http://www.w3.org/2000/svg" viewBox="0 0 512 512"><path d="M219.818 334.618C220.103 355.972 217.46 377.751 211.963 399.348 206.301 421.591 198.186 442.823 187.847 462.456 184.21 469.357 177.322 473.478 169.415 473.478 163.82 473.478 158.545 471.285 154.564 467.304L45.678 358.417C40.893 353.632 38.73 347.046 39.746 340.348 40.743 333.762 44.674 328.217 50.526 325.132 70.154 314.795 91.388 306.681 113.634 301.019 134.164 295.794 154.906 293.144 175.281 293.144 176.323 293.144 177.352 293.151 178.363 293.164 200.921 293.463 219.518 312.06 219.818 334.618ZM430.927 261.118C408.931 283.114 385.221 304.645 362.059 324.558 366.55 346.177 372.144 386.323 361.804 421.476 347.436 470.333 315.512 505.454 314.161 506.925 310.707 510.684 305.869 512.869 300.764 512.979 300.631 512.982 300.502 512.982 300.369 512.982 295.407 512.982 290.639 511.011 287.125 507.494L233.297 453.664C239.309 439.161 244.326 424.086 248.27 408.588 254.576 383.81 257.608 358.755 257.279 334.121 256.702 290.726 222.258 256.28 178.86 255.703 177.681 255.688 176.488 255.68 175.279 255.68 151.789 255.68 127.94 258.72 104.391 264.714 88.891 268.658 73.818 273.673 59.315 279.684L5.487 225.857C1.878 222.248-0.102 217.32 0.005 212.218 0.112 207.113 2.3 202.275 6.059 198.821 7.53 197.47 42.651 165.548 91.508 151.177 104.768 147.279 119.878 145.301 136.424 145.301 156.884 145.301 175.801 148.305 188.421 150.928 208.334 127.765 229.868 104.053 251.864 82.057 325.907 8.015 437.603 0.022 482.189 0.022 490.041 0.022 494.624 0.29 495.121 0.322 504.56 0.904 512.082 8.427 512.664 17.865 513.046 24.071 521.019 171.025 430.927 261.118ZM417.557 203.416C431.981 188.993 439.923 169.817 439.923 149.422 439.923 129.024 431.981 109.848 417.557 95.424S383.958 73.059 363.562 73.059C343.165 73.059 323.989 81.001 309.565 95.424S287.2 129.024 287.2 149.422C287.2 169.819 295.142 188.993 309.565 203.416S343.165 225.782 363.562 225.782C383.958 225.782 403.134 217.84 417.557 203.416ZM363.562 110.522C353.173 110.522 343.405 114.568 336.057 121.916 328.711 129.264 324.663 139.032 324.663 149.422 324.663 159.811 328.709 169.579 336.057 176.927 343.405 184.273 353.173 188.321 363.562 188.321 373.952 188.321 383.72 184.275 391.068 176.927 398.413 169.579 402.462 159.811 402.462 149.422 402.462 139.032 398.416 129.264 391.068 121.916 383.718 114.568 373.95 110.522 363.562 110.522Z"/></svg>
